X: 1659
T: Lancers Quadrille
B: australian traditional tunes wiki
M:C
L:1/8
R: Reel
Q: 1/4=100
K:G
V:1 
B>c|d>cde dcBA | G2G2GFGA | B2B2BABc | A2A2ABcd |
dcde dcBA | G2G2GFGA | B2B2AGAB | G2B2G2:|
|:d2|gfga b2a>g | gfafd2ef | g>fgbb2ag | gfafd2zd |
d>cBc d>efg | d>cB>c defg | d3B AGAB | G2B2G2:|
% abcbook-tune_id 6342d53ac56b787e6178e412


% abcbook-boost 0
% abcbook-tablature 
% abcbook-transpose 
% abcbook-lastupdated 1665324376583
% abcbook-soundfonts 
% abcbook-repeats 1
% NFF Book 2022
% Bush Traditions recording played by Roland Clarke

